icons/high_level.svg

<svg width="48" height="48" viewBox="0 0 48 48" fill="none" xmlns="http://www.w3.org/2000/svg">
<path d="M6.10881 24C6.55678 19.9303 8.36314 16.2691 11.065 13.4793L14.1214 16.5355L15.5356 15.1213L12.5348 12.1207C15.4086 9.74502 19.0332 8.24437 23 8.02729L23 13L25 13L25 8.02729C28.9668 8.24436 32.5915 9.74505 35.4653 12.1208L32.5858 14.9999L33.9999 16.4142L36.9351 13.4794C39.6369 16.2692 41.4432 19.9303 41.8912 24H37.6843V26H42C41.9975 30.3403 40.4579 34.3201 37.894 37.4269L34.4736 34.0067L33.0594 35.4209L36.5366 38.898L36.5239 38.9103L37.9152 40.3471C41.6663 36.7148 44 31.6236 44 25.9892C44 14.949 35.0452 6 24 6C12.9548 6 4 14.949 4 25.9892C4 31.4741 6.21161 36.4446 9.78969 40.0553L11.2103 38.6475C11.204 38.6412 11.1978 38.6349 11.1915 38.6285L14.1967 35.6232L12.7825 34.209L9.86416 37.1274C7.44565 34.0662 6.00246 30.2022 6 26H10.0527V24H6.10881Z" fill="black"/>
<path fill-rule="evenodd" clip-rule="evenodd" d="M35.4815 28.6212L21.5187 29.9093C21.1326 29.9834 20.7868 30.196 20.5463 30.507L18.9078 32.9363C18.7254 34.1504 18.8548 34.6334 19.5725 35.4169L22.2061 36.7014C22.5699 36.8506 22.9756 36.8617 23.3471 36.7329L36.0627 30.8606C37.9542 30.2044 37.4476 28.2437 35.4815 28.6212ZM22.8176 34.7745L30.8716 31.055L22.0396 31.8697L20.8376 33.6519C20.8325 33.7331 20.8332 33.7814 20.8346 33.8067L22.8176 34.7745ZM20.8195 33.781C20.8197 33.7811 20.8214 33.7839 20.8237 33.7892C20.8204 33.7835 20.8192 33.7809 20.8195 33.781ZM35.9631 30.5734C35.9631 30.5734 35.9632 30.5733 35.9631 30.5734V30.5734ZM35.5043 28.9292L35.507 28.9274C35.5071 28.9274 35.5062 28.9281 35.5043 28.9292Z" fill="black"/>
</svg>

<svg
  xmlns="http://www.w3.org/2000/svg"
  width="24"
  height="24"
  viewBox="0 0 24 24"
  fill="none"
  stroke="currentColor"
  stroke-width="2"
  stroke-linecap="round"
  stroke-linejoin="round"
>
  <path d="M6.109 24a17.93 17.93 0 0 1 4.956-10.52l3.056 3.055 1.415-1.414-3.001-3A17.93 17.93 0 0 1 23 8.027V13h2V8.027a17.92 17.92 0 0 1 10.465 4.094L32.585 15 34 16.414l2.935-2.935A17.93 17.93 0 0 1 41.891 24h-4.207v2H42a17.9 17.9 0 0 1-4.106 11.427l-3.42-3.42-1.415 1.414 3.478 3.477-.013.012 1.391 1.437A19.93 19.93 0 0 0 44 25.99C44 14.95 35.045 6 24 6S4 14.949 4 25.99a19.92 19.92 0 0 0 5.79 14.065l1.42-1.407-.019-.02 3.006-3.005-1.414-1.414-2.919 2.918A17.9 17.9 0 0 1 6 26h4.053v-2z" />
  <path
    fill-rule="evenodd"
    d="M35.482 28.621 21.518 29.91a1.6 1.6 0 0 0-.973.598l-1.638 2.43c-.183 1.213-.053 1.696.665 2.48l2.633 1.284c.364.15.77.16 1.141.032l12.716-5.872c1.891-.657 1.385-2.617-.582-2.24m-12.664 6.154 8.054-3.72-8.832.815-1.202 1.782c-.006.081-.005.13-.003.155zm-1.998-.994.004.008zm14.684-4.852.003-.002z"
    clip-rule="evenodd"
  />
</svg>
